wonderswan/_inc/system.svg

<svg xmlns="http://www.w3.org/2000/svg"><g fill="#fff"><path d="m117.379 65.471 8.187-34.319 8.243-6.541h8.184l-8.184 34.319 8.184-4.9 6.568-24.49 4.929-4.929h11.528l-8.213 34.319 8.213-6.512 4.9-21.266 6.601-6.541h9.886l-8.214 32.707-9.855 8.153z"/><path d="m450.199 65.471 4.181-19.594 7.436-7.139h9.556l-5.611 21.537 8.241-4.9 2.089-11.14 5.5-5.497h11.467l-5.616 21.537 7.769-5.197 2.209-9.201 7.166-7.139h8.544l-4.779 18.58-11.201 8.153z"/><path d="m386.072 65.471 8.244-8.153h35.364s3.044.897 4.779-2.957c1.582-3.585-1.492-3.585-1.492-3.585h-16.427s-4.719-1.077-4.749-6.871c-.09-14.245 11.621-17.922 11.621-17.922h34.523l-6.869 6.811h-18.099s-5.767 1.645-5.887 6.454c-.087 2.18 2.6 1.733 2.6 1.733h14.752s8.543 1.432 6.571 10.633c-2.57 12.098-11.471 13.857-11.471 13.857z"/><path d="m357.997 65.471h14.752l4.479-16.964c.541-1.973 5.737-4.212 4.362-3.972-1.345.237 4.719-.898 4.719-.898s1.913.538 2.867 1.853c.988 1.282-.954 3.197-1.224 4.689-.268 1.492 1.645 1.642 1.645 1.642h8.243s4.419-1.642 5.614-3.284c1.168-1.672 2.627-3.405 2.627-4.87 0-1.462-3.254-3.284-3.254-3.284l-3.315-1.612h-24.64s-11.798 6.752-13.17 8.154c-.48.417-3.705 18.546-3.705 18.546z"/><path d="m185.537 46.745c-1.135 1.311-4.836 12.842-4.032 14.721.835 1.826 5.407 4.002 5.407 4.002h24.013s11.198-7.019 12.065-8.003c.835-1.015 4.002-12.215 4.002-13.383 0-1.165-2.687-5.347-2.687-5.347h-28.078c.003.003-9.522 6.695-10.69 8.01zm18.727-2.66h7.379s-.838 8.874-2.687 11.38c-1.882 2.51-6.034 4.69-6.034 4.69s-4.659.477-5.317 0c-.687-.538-.18-5.347-.18-5.347s.628-5.197 1.495-6.722c.838-1.492 5.344-4.001 5.344-4.001z"/><path d="m275.081 46.745c-1.134 1.311-4.836 12.842-4.001 14.721.837 1.826 5.376 4.002 5.376 4.002h33.422s1.105-5.313 2.48-10.693c1.311-5.046 2.867-12.81 2.867-13.383 0-1.195 8.303-11.675 8.303-11.675h-14.515l-7.346 9.018h-15.892c.033.003-9.496 6.695-10.694 8.01zm18.727-2.66h7.349s-.807 8.874-2.69 11.38c-1.822 2.51-6.004 4.69-6.004 4.69s-4.656.477-5.346 0c-.628-.538-.178-5.347-.178-5.347s.628-5.197 1.522-6.722c.838-1.492 5.347-4.001 5.347-4.001z"/><path d="m223.414 65.471 7.583-26.733h32.079s4.242.447 5.674 2.837c1.495 2.393 1.018 6.511 1.018 6.511l-4.362 17.385h-13.38s1.552-8.514 3.047-14.695c1.492-6.184-2.69-6.691-2.69-6.691h-8.003l-4.599 16.04s-4.002 4.659-5.674 5.346z"/><path d="m552.613 65.471 8.513-26.733h32.08s4.212.447 5.704 2.837c1.495 2.393 1.018 6.511 1.018 6.511l-4.513 17.385h-14.664s2.449-7.166 4.004-13.383c1.492-6.151-2.182-8.003-2.182-8.003h-8.034l-4.482 16.037s-3.701 4.659-5.343 5.349z"/><path d="m319.196 46.745c-1.165 1.311-4.809 12.842-4.001 14.721.807 1.826 5.346 4.002 5.346 4.002h24.043s4.78-2.987 8.334-5.346c0 0-20.429.15-21.684 0-.567-.061-.357-2.537-.297-3.999h16.427s3.164-.688 7.884-4.602c4.779-3.912 5.376-4.332 5.376-7.439 0-3.074-2.69-5.347-2.69-5.347h-28.072c.057.003-9.498 6.695-10.666 8.01zm18.76-2.66h10.78s-1.195 4.091-7.076 6.691h-8.991c-.867-2.329 1.255-4.182 2.45-5.199 1.252-1.135 2.837-1.492 2.837-1.492z"/><path d="m535.231 65.471s4.539-14.365 5.974-18.967c.717-2.506-.955-2.419-4.122-2.419s-5.467.687-9.856 8.003c-5.136 8.544 7.587 10.873 7.587 10.873l-.898 2.507h-14.695s-8.033.33-8.033-9.345c0-11.888 15.202-17.388 15.202-17.388h32.107l-8.541 26.733h-14.725z"/><path d="m76.792 24.731c.744-.027 1.522-.06 2.299-.06 16.725 0 31.062 16.217 32.137 24.46.12.868.18 1.645.24 2.3-.21-22.519-35.304-51.431-63.499-51.431-21.746 0-31.899 8.781-35.246 18.697-5.017 12.515 1.585 30.317 16.997 42.98 1.642 1.314 3.254 2.536 4.926 3.674-.717.06-1.492.06-2.269.06-16.727 0-31.065-16.217-32.14-24.46-.087-.868-.177-1.642-.237-2.3.207 22.518 35.304 51.431 63.499 51.431 21.743 0 31.899-8.808 35.244-18.697 5.019-12.485-1.582-30.284-16.995-42.98-1.645-1.315-3.257-2.54-4.956-3.674zm-31.395 37.396c-12.423-10.186-16.548-25.151-9.589-33.665 7.019-8.511 22.852-7.526 35.574 2.393 12.603 9.795 17.442 24.727 10.991 33.628 2.629-5.346-.298-13.38-7.229-18.846-7.436-5.854-16.785-6.452-20.906-1.402-4.152 5.046-1.673 13.947 5.616 20.008 5.644 4.692 12.483 6.332 17.382 4.632-8.271 4.392-21.323 1.883-31.839-6.748z"/></g></svg>

<?xml version="1.0" encoding="utf-8"?>
<svg version="1.1" xmlns="http://www.w3.org/2000/svg">
  <g>
    <polygon points="117.379 65.471 125.566 31.152 133.809 24.611 141.993 24.611 133.809 58.93 141.993 54.03 148.561 29.54 153.49 24.611 165.018 24.611 156.805 58.93 165.018 52.418 169.918 31.152 176.519 24.611 186.405 24.611 178.191 57.318 168.336 65.471" id="polygon9" style="fill-opacity: 1; fill: rgb(255, 255, 255);"/>
    <polygon points="450.199 65.471 454.38 45.877 461.816 38.738 471.372 38.738 465.761 60.275 474.002 55.375 476.091 44.235 481.591 38.738 493.058 38.738 487.442 60.275 495.211 55.078 497.42 45.877 504.586 38.738 513.13 38.738 508.351 57.318 497.15 65.471" id="polygon11" style="fill-opacity: 1; fill: rgb(255, 255, 255);"/>
    <path d="M 386.072 65.471 L 394.316 57.318 L 429.68 57.318 C 429.68 57.318 432.724 58.215 434.459 54.361 C 436.041 50.776 432.967 50.776 432.967 50.776 L 416.54 50.776 C 416.54 50.776 411.821 49.699 411.791 43.905 C 411.701 29.66 423.412 25.983 423.412 25.983 L 457.935 25.983 L 451.066 32.794 L 432.967 32.794 C 432.967 32.794 427.2 34.439 427.08 39.248 C 426.993 41.428 429.68 40.981 429.68 40.981 L 444.432 40.981 C 444.432 40.981 452.975 42.413 451.003 51.614 C 448.433 63.712 439.532 65.471 439.532 65.471 L 386.072 65.471 L 386.072 65.471 Z" id="path13" style="fill-opacity: 1; fill: rgb(255, 255, 255);"/>
    <path d="M 357.997 65.471 L 372.749 65.471 L 377.228 48.507 C 377.769 46.534 382.965 44.295 381.59 44.535 C 380.245 44.772 386.309 43.637 386.309 43.637 C 386.309 43.637 388.222 44.175 389.176 45.49 C 390.164 46.772 388.222 48.687 387.952 50.179 C 387.684 51.671 389.597 51.821 389.597 51.821 L 397.84 51.821 C 397.84 51.821 402.259 50.179 403.454 48.537 C 404.622 46.865 406.081 45.132 406.081 43.667 C 406.081 42.205 402.827 40.383 402.827 40.383 L 399.512 38.771 L 374.872 38.771 C 374.872 38.771 363.074 45.523 361.702 46.925 C 361.222 47.342 357.997 65.471 357.997 65.471 Z" id="path15" style="fill-opacity: 1; fill: rgb(255, 255, 255);"/>
    <path d="M 185.537 46.745 C 184.402 48.056 180.701 59.587 181.505 61.466 C 182.34 63.292 186.912 65.468 186.912 65.468 L 210.925 65.468 C 210.925 65.468 222.123 58.449 222.99 57.465 C 223.825 56.45 226.992 45.25 226.992 44.082 C 226.992 42.917 224.305 38.735 224.305 38.735 L 196.227 38.735 C 196.23 38.738 186.705 45.43 185.537 46.745 Z M 204.264 44.085 L 211.643 44.085 C 211.643 44.085 210.805 52.959 208.956 55.465 C 207.074 57.975 202.922 60.155 202.922 60.155 C 202.922 60.155 198.263 60.632 197.605 60.155 C 196.918 59.617 197.425 54.808 197.425 54.808 C 197.425 54.808 198.053 49.611 198.92 48.086 C 199.758 46.594 204.264 44.085 204.264 44.085 Z" id="path17" style="fill-opacity: 1; fill: rgb(255, 255, 255);"/>
    <path d="M 275.081 46.745 C 273.947 48.056 270.245 59.587 271.08 61.466 C 271.917 63.292 276.456 65.468 276.456 65.468 L 309.878 65.468 C 309.878 65.468 310.983 60.155 312.358 54.775 C 313.669 49.729 315.225 41.965 315.225 41.392 C 315.225 40.197 323.528 29.717 323.528 29.717 L 309.013 29.717 L 301.667 38.735 L 285.775 38.735 C 285.808 38.738 276.279 45.43 275.081 46.745 Z M 293.808 44.085 L 301.157 44.085 C 301.157 44.085 300.35 52.959 298.467 55.465 C 296.645 57.975 292.463 60.155 292.463 60.155 C 292.463 60.155 287.807 60.632 287.117 60.155 C 286.489 59.617 286.939 54.808 286.939 54.808 C 286.939 54.808 287.567 49.611 288.461 48.086 C 289.299 46.594 293.808 44.085 293.808 44.085 Z" id="path19" style="fill-opacity: 1; fill: rgb(255, 255, 255);"/>
    <path d="M 223.414 65.471 L 230.997 38.738 L 263.076 38.738 C 263.076 38.738 267.318 39.185 268.75 41.575 C 270.245 43.968 269.768 48.086 269.768 48.086 L 265.406 65.471 L 252.026 65.471 C 252.026 65.471 253.578 56.957 255.073 50.776 C 256.565 44.592 252.383 44.085 252.383 44.085 L 244.38 44.085 L 239.781 60.125 C 239.781 60.125 235.779 64.784 234.107 65.471 L 223.414 65.471 Z" id="path21" style="fill-opacity: 1; fill: rgb(255, 255, 255);"/>
    <path d="M 552.613 65.471 L 561.126 38.738 L 593.206 38.738 C 593.206 38.738 597.418 39.185 598.91 41.575 C 600.405 43.968 599.928 48.086 599.928 48.086 L 595.415 65.471 L 580.751 65.471 C 580.751 65.471 583.2 58.305 584.755 52.088 C 586.247 45.937 582.573 44.085 582.573 44.085 L 574.539 44.085 L 570.057 60.122 C 570.057 60.122 566.356 64.781 564.714 65.471 L 552.613 65.471 Z" id="path23" style="fill-opacity: 1; fill: rgb(255, 255, 255);"/>
    <path d="M 319.196 46.745 C 318.031 48.056 314.387 59.587 315.195 61.466 C 316.002 63.292 320.541 65.468 320.541 65.468 L 344.584 65.468 C 344.584 65.468 349.364 62.481 352.918 60.122 C 352.918 60.122 332.489 60.272 331.234 60.122 C 330.667 60.061 330.877 57.585 330.937 56.123 L 347.364 56.123 C 347.364 56.123 350.528 55.435 355.248 51.521 C 360.027 47.609 360.624 47.189 360.624 44.082 C 360.624 41.008 357.934 38.735 357.934 38.735 L 329.862 38.735 C 329.919 38.738 320.364 45.43 319.196 46.745 Z M 337.956 44.085 L 348.736 44.085 C 348.736 44.085 347.541 48.176 341.66 50.776 L 332.669 50.776 C 331.802 48.447 333.924 46.594 335.119 45.577 C 336.371 44.442 337.956 44.085 337.956 44.085 Z" id="path25" style="fill-opacity: 1; fill: rgb(255, 255, 255);"/>
    <path d="M 535.231 65.471 C 535.231 65.471 539.77 51.106 541.205 46.504 C 541.922 43.998 540.25 44.085 537.083 44.085 C 533.916 44.085 531.616 44.772 527.227 52.088 C 522.091 60.632 534.814 62.961 534.814 62.961 L 533.916 65.468 L 519.221 65.468 C 519.221 65.468 511.188 65.798 511.188 56.123 C 511.188 44.235 526.39 38.735 526.39 38.735 L 558.497 38.735 L 549.956 65.468 L 535.231 65.468 L 535.231 65.471 Z" id="path27" style="fill-opacity: 1; fill: rgb(255, 255, 255);"/>
    <path d="M 76.792 24.731 C 77.536 24.704 78.314 24.671 79.091 24.671 C 95.816 24.671 110.153 40.888 111.228 49.131 C 111.348 49.999 111.408 50.776 111.468 51.431 C 111.258 28.912 76.164 0 47.969 0 C 26.223 0 16.07 8.781 12.723 18.697 C 7.706 31.212 14.308 49.014 29.72 61.677 C 31.362 62.991 32.974 64.213 34.646 65.351 C 33.929 65.411 33.154 65.411 32.377 65.411 C 15.65 65.411 1.312 49.194 0.237 40.951 C 0.15 40.083 0.06 39.309 0 38.651 C 0.207 61.169 35.304 90.082 63.499 90.082 C 85.242 90.082 95.398 81.274 98.743 71.385 C 103.762 58.9 97.161 41.101 81.748 28.405 C 80.103 27.09 78.491 25.865 76.792 24.731 Z M 45.397 62.127 C 32.974 51.941 28.849 36.976 35.808 28.462 C 42.827 19.951 58.66 20.936 71.382 30.855 C 83.985 40.65 88.824 55.582 82.373 64.483 C 85.002 59.137 82.075 51.103 75.144 45.637 C 67.708 39.783 58.359 39.185 54.238 44.235 C 50.086 49.281 52.565 58.182 59.854 64.243 C 65.498 68.935 72.337 70.575 77.236 68.875 C 68.965 73.267 55.913 70.758 45.397 62.127 Z" id="path29" style="fill-opacity: 1; fill: rgb(255, 255, 255);"/>
  </g>
</svg>
